images/icon.svg

<svg width="400" height="400" viewBox="0 0 400 400" fill="none" xmlns="http://www.w3.org/2000/svg">
<path d="M390.4 198.4C390.4 304.439 304.439 390.4 198.4 390.4C92.3613 390.4 6.4 304.439 6.4 198.4C6.4 92.3613 92.3613 6.4 198.4 6.4C304.439 6.4 390.4 92.3613 390.4 198.4Z" fill="#026FD4"/>
<path fill-rule="evenodd" clip-rule="evenodd" d="M0 200C0 89.543 89.543 0 200 0C310.457 0 400 89.543 400 200C400 310.457 310.457 400 200 400C89.543 400 0 310.457 0 200ZM136.962 67.9078C152.386 38.0559 171.898 20.4449 192 16.7375V79.5258C182.869 82.1605 175.603 89.1914 172.641 98.1785C162.176 97.3898 152.01 96.1562 142.217 94.5211C141.379 87.5332 137.727 81.4113 132.426 77.3207C133.884 74.0777 135.397 70.9379 136.962 67.9078ZM172.051 114.179C160.741 113.345 149.722 112.011 139.08 110.218C134.751 117.845 126.619 123.03 117.262 123.196C113.68 138.627 111.134 155.223 109.821 172.641C118.808 175.603 125.84 182.87 128.474 192H159.169C162.394 175.441 175.441 162.394 192 159.168V134.874C182.188 132.043 174.529 124.135 172.051 114.179ZM208 134.874V159.168C224.559 162.394 237.606 175.441 240.831 192H271.526C274.16 182.87 281.191 175.603 290.179 172.641C288.866 155.223 286.32 138.627 282.738 123.196C273.381 123.03 265.249 117.845 260.92 110.218C250.278 112.011 239.259 113.345 227.949 114.179C225.471 124.135 217.812 132.043 208 134.874ZM227.359 98.1785C237.824 97.3898 247.99 96.1562 257.783 94.5211C258.621 87.5332 262.273 81.4113 267.574 77.3207C266.116 74.0777 264.603 70.9379 263.038 67.9078C247.614 38.0559 228.102 20.4449 208 16.7375V79.5258C217.131 82.1605 224.397 89.1914 227.359 98.1785ZM117.278 72.0043C119.022 68.0594 120.847 64.2426 122.748 60.5633C130.329 45.8898 139.339 33.0445 149.54 23.0047C118.348 31.8805 90.5343 48.7793 68.472 71.3281C76.8136 75.6012 85.9771 79.4809 95.8405 82.8973C100.472 76.307 108.133 72 116.8 72C116.96 72 117.119 72.0016 117.278 72.0043ZM91.2075 98.225C78.9814 94.0238 67.6684 89.1246 57.473 83.6207C33.1242 113.405 17.9264 150.961 16.1708 192H73.1256C75.9569 182.188 83.865 174.529 93.8214 172.051C95.2081 153.241 97.9764 135.241 101.941 118.449C95.5969 113.919 91.4073 106.566 91.2075 98.225ZM128.474 208C125.84 217.13 118.808 224.397 109.821 227.359C111.134 244.778 113.68 261.373 117.262 276.804C126.519 276.968 134.578 282.045 138.94 289.539C149.641 287.784 160.717 286.493 172.08 285.705C174.589 275.803 182.226 267.946 192 265.126V240.832C175.441 237.606 162.394 224.559 159.169 208H128.474ZM93.8214 227.949C95.2081 246.758 97.9764 264.759 101.941 281.551C95.7368 285.981 91.5932 293.111 91.2265 301.225C78.8263 305.396 67.3433 310.28 56.9872 315.783C32.9221 286.095 17.9147 248.765 16.1708 208H73.1256C75.9569 217.812 83.865 225.471 93.8214 227.949ZM67.9423 328.128C76.3618 323.885 85.6003 320.038 95.5352 316.659C100.131 323.499 107.94 328 116.8 328C116.96 328 117.119 327.998 117.278 327.996C119.022 331.941 120.847 335.757 122.748 339.437C130.329 354.11 139.339 366.955 149.54 376.995C118.098 368.048 90.0884 350.949 67.9423 328.128ZM136.962 332.092C135.397 329.062 133.884 325.923 132.426 322.68C137.794 318.537 141.472 312.31 142.247 305.211C152.026 303.629 162.168 302.447 172.604 301.707C175.541 310.748 182.831 317.828 192 320.474V383.262C171.898 379.555 152.386 361.944 136.962 332.092ZM208 383.262V320.474C217.09 317.851 224.332 310.871 227.319 301.942C237.817 302.78 248.008 304.066 257.818 305.756C258.718 312.629 262.344 318.643 267.574 322.68C266.116 325.923 264.603 329.062 263.038 332.092C247.614 361.944 228.102 379.555 208 383.262ZM282.722 327.996C280.978 331.941 279.153 335.757 277.252 339.437C269.671 354.11 260.661 366.955 250.459 376.995C281.399 368.192 309.014 351.495 330.989 329.22C322.725 324.918 313.634 321.004 303.838 317.55C299.178 323.887 291.669 328 283.2 328C283.04 328 282.881 327.998 282.722 327.996ZM308.8 302.333C320.852 306.563 331.996 311.476 342.033 316.981C366.67 287.102 382.062 249.316 383.829 208H326.874C324.043 217.812 316.135 225.471 306.179 227.949C304.792 246.759 302.024 264.759 298.059 281.551C304.544 286.182 308.778 293.762 308.8 302.333ZM282.738 276.804C286.32 261.373 288.866 244.777 290.179 227.359C281.191 224.397 274.16 217.13 271.526 208H240.831C237.606 224.559 224.559 237.606 208 240.832V265.126C217.852 267.969 225.534 275.931 227.979 285.946C239.235 286.825 250.198 288.2 260.781 290.032C265.072 282.268 273.279 276.971 282.738 276.804ZM277.252 60.5633C279.153 64.2426 280.978 68.0594 282.722 72.0043C282.881 72.0016 283.04 72 283.2 72C291.867 72 299.528 76.307 304.16 82.8973C314.023 79.4809 323.186 75.6012 331.528 71.3281C309.466 48.7793 281.652 31.8805 250.459 23.0047C260.661 33.0445 269.671 45.8898 277.252 60.5633ZM308.793 98.225C308.593 106.566 304.403 113.919 298.059 118.449C302.024 135.241 304.792 153.241 306.179 172.051C316.135 174.529 324.043 182.188 326.874 192H383.829C382.074 150.961 366.876 113.404 342.527 83.6203C332.332 89.1242 321.019 94.0238 308.793 98.225Z" fill="white"/>
</svg>

<svg width="400" height="400" fill="none" xmlns="http://www.w3.org/2000/svg"><path d="M390.4 198.4c0 106.039-85.961 192-192 192s-192-85.961-192-192 85.961-192 192-192 192 85.961 192 192Z" fill="#026FD4"/><path fill-rule="evenodd" clip-rule="evenodd" d="M0 200C0 89.543 89.543 0 200 0s200 89.543 200 200-89.543 200-200 200S0 310.457 0 200ZM136.962 67.908c15.424-29.852 34.936-47.463 55.038-51.17v62.788c-9.131 2.635-16.397 9.665-19.359 18.653a340.118 340.118 0 0 1-30.424-3.658c-.838-6.988-4.49-13.11-9.791-17.2a192.757 192.757 0 0 1 4.536-9.413Zm35.089 46.271a356.39 356.39 0 0 1-32.971-3.961c-4.329 7.627-12.461 12.812-21.818 12.978-3.582 15.431-6.128 32.027-7.441 49.445 8.987 2.962 16.019 10.229 18.653 19.359h30.695c3.225-16.559 16.272-29.606 32.831-32.832v-24.294c-9.812-2.831-17.471-10.739-19.949-20.695ZM208 134.874v24.294c16.559 3.226 29.606 16.273 32.831 32.832h30.695c2.634-9.13 9.665-16.397 18.653-19.359-1.313-17.418-3.859-34.014-7.441-49.445-9.357-.166-17.489-5.351-21.818-12.978a356.39 356.39 0 0 1-32.971 3.961c-2.478 9.956-10.137 17.864-19.949 20.695Zm19.359-36.695a340.118 340.118 0 0 0 30.424-3.658c.838-6.988 4.49-13.11 9.791-17.2a192.757 192.757 0 0 0-4.536-9.413C247.614 38.056 228.102 20.445 208 16.738v62.788c9.131 2.635 16.397 9.665 19.359 18.653ZM117.278 72.004a209.254 209.254 0 0 1 5.47-11.44c7.581-14.674 16.591-27.52 26.792-37.56-31.192 8.877-59.006 25.775-81.068 48.324 8.342 4.273 17.505 8.153 27.369 11.57C100.472 76.306 108.133 72 116.8 72c.16 0 .319.002.478.004Zm-26.07 26.221c-12.227-4.201-23.54-9.1-33.735-14.604C33.124 113.405 17.926 150.96 16.171 192h56.955c2.83-9.812 10.739-17.471 20.695-19.949 1.387-18.81 4.155-36.81 8.12-53.602-6.344-4.53-10.534-11.883-10.734-20.224ZM128.474 208c-2.634 9.13-9.666 16.397-18.653 19.359 1.313 17.419 3.859 34.014 7.441 49.445 9.257.164 17.316 5.241 21.678 12.735a358.003 358.003 0 0 1 33.14-3.834c2.509-9.902 10.146-17.759 19.92-20.579v-24.294c-16.559-3.226-29.606-16.273-32.831-32.832h-30.695Zm-34.653 19.949c1.387 18.809 4.155 36.81 8.12 53.602-6.204 4.43-10.348 11.56-10.715 19.674-12.4 4.171-23.883 9.055-34.239 14.558C32.922 286.095 17.915 248.765 16.171 208h56.955c2.83 9.812 10.739 17.471 20.695 19.949ZM67.942 328.128c8.42-4.243 17.658-8.09 27.593-11.469C100.131 323.499 107.94 328 116.8 328c.16 0 .319-.002.478-.004a209.466 209.466 0 0 0 5.47 11.441c7.581 14.673 16.591 27.518 26.792 37.558-31.442-8.947-59.452-26.046-81.598-48.867Zm69.02 3.964a192.677 192.677 0 0 1-4.536-9.412c5.368-4.143 9.046-10.37 9.821-17.469a341.5 341.5 0 0 1 30.357-3.504c2.937 9.041 10.227 16.121 19.396 18.767v62.788c-20.102-3.707-39.614-21.318-55.038-51.17ZM208 383.262v-62.788c9.09-2.623 16.332-9.603 19.319-18.532a338.436 338.436 0 0 1 30.499 3.814c.9 6.873 4.526 12.887 9.756 16.924a192.677 192.677 0 0 1-4.536 9.412c-15.424 29.852-34.936 47.463-55.038 51.17Zm74.722-55.266a209.466 209.466 0 0 1-5.47 11.441c-7.581 14.673-16.591 27.518-26.793 37.558 30.94-8.803 58.555-25.5 80.53-47.775-8.264-4.302-17.355-8.216-27.151-11.67-4.66 6.337-12.169 10.45-20.638 10.45-.16 0-.319-.002-.478-.004Zm26.078-25.663c12.052 4.23 23.196 9.143 33.233 14.648 24.637-29.879 40.029-67.665 41.796-108.981h-56.955c-2.831 9.812-10.739 17.471-20.695 19.949-1.387 18.81-4.155 36.81-8.12 53.602 6.485 4.631 10.719 12.211 10.741 20.782Zm-26.062-25.529c3.582-15.431 6.128-32.027 7.441-49.445-8.988-2.962-16.019-10.229-18.653-19.359h-30.695c-3.225 16.559-16.272 29.606-32.831 32.832v24.294c9.852 2.843 17.534 10.805 19.979 20.82a354.136 354.136 0 0 1 32.802 4.086c4.291-7.764 12.498-13.061 21.957-13.228Zm-5.486-216.24a209.254 209.254 0 0 1 5.47 11.44c.159-.002.318-.004.478-.004 8.667 0 16.328 4.307 20.96 10.897 9.863-3.416 19.026-7.296 27.368-11.569-22.062-22.549-49.876-39.448-81.069-48.323 10.202 10.04 19.212 22.885 26.793 37.558Zm31.541 37.661c-.2 8.341-4.39 15.694-10.734 20.224 3.965 16.792 6.733 34.792 8.12 53.602 9.956 2.478 17.864 10.137 20.695 19.949h56.955c-1.755-41.039-16.953-78.596-41.302-108.38-10.195 5.504-21.508 10.404-33.734 14.605Z" fill="#fff"/></svg>
